Origami/64x64/apps/libreoffice-base.svg

<svg width="64" height="64" version="1" xmlns="http://www.w3.org/2000/svg">
 <path d="m10 56v2c0 1.662 1.338 3 3 3h38c1.662 0 3-1.338 3-3v-2c0 1.662-1.338 3-3 3h-38c-1.662 0-3-1.338-3-3z" style="opacity:.2"/>
 <path d="m54 57v-50c0-1.662-1.338-3-3-3h-38c-1.662 0-3 1.338-3 3v50c0 1.662 1.338 3 3 3h38c1.662 0 3-1.338 3-3z" style="fill:#e81d62"/>
 <path d="M 14,9 14,57 50,57 50,25.828 33.172,9 14,9 Z M 38.828,9 50,20.172 50,9 38.828,9 Z" style="opacity:.1"/>
 <path d="M 14,8 14,56 50,56 50,24.828 33.172,8 14,8 Z M 38.828,8 50,19.1718 50,8 38.828,8 Z" style="fill:#f5f5f5"/>
 <path d="m13 4c-1.662 0-3 1.338-3 3v1c0-1.662 1.338-3 3-3h38c1.662 0 3 1.338 3 3v-1c0-1.662-1.338-3-3-3h-38z" style="fill:#ffffff;opacity:.1"/>
 <path d="m32.003906 26l-0.003906 0.003906c-4.1948 0-7.778872 1.422035-9.263672 3.435547-0.12464 0.169042-0.234065 0.340661-0.328125 0.517578-0.0894 0.168135-0.166382 0.33929-0.226562 0.513672a10 5.498031 0 0 0 -0.041016 0.160156c-0.03428 0.118179-0.071437 0.236851-0.091797 0.357422a10 5.498031 0 0 0 -0.048828 0.513672c5.5e-4 0.178649 0.018741 0.358012 0.050781 0.535156a10 5.498031 0 0 0 0.136719 0.513672 10 5.498031 0 0 0 0.230469 0.513672 10 5.498031 0 0 0 0.318359 0.5 10 5.498031 0 0 0 9.263672 3.435547 10 5.498031 0 0 0 9.263672 -3.435547 10 5.498031 0 0 0 0.001953 -0.005859 10 5.498031 0 0 0 0.271484 -0.423828c0.0158-0.02787 0.035722-0.056005 0.050782-0.083985a10 5.498031 0 0 0 0.164062 -0.365234c0.02332-0.05752 0.052326-0.113981 0.072266-0.171875a10 5.498031 0 0 0 0.082031 -0.304688c0.0192-0.08061 0.039974-0.161099 0.052734-0.242187a10 5.498031 0 0 0 0.041016 -0.464844 10 5.498031 0 0 0 -0.052734 -0.546875c-0.092-0.536051-0.329688-1.043379-0.679688-1.517578-1.486-2.014316-5.069672-3.4375-9.263672-3.4375zm-9.267578 10a10 5.09051 0 0 0 -0.736328 1.910156 10 5.09051 0 0 0 10 5.089844 10 5.09051 0 0 0 10 -5.091797 10 5.09051 0 0 0 -0.736328 -1.908203 10 5.09051 0 0 1 -9.263672 3.181641 10 5.09051 0 0 1 -9.263672 -3.181641zm0 6a10 5.09051 0 0 0 -0.736328 1.908203 10 5.09051 0 0 0 10 5.091797 10 5.09051 0 0 0 10 -5.089844 10 5.09051 0 0 0 -0.736328 -1.910156 10 5.09051 0 0 1 -9.263672 3.183594 10 5.09051 0 0 1 -9.263672 -3.183594z" style="opacity:.5"/>
</svg>

<svg xmlns="http://www.w3.org/2000/svg" width="64" height="64" version="1">
 <path style="opacity:0.2" d="m 10,56 0,2 c 0,1.662 1.338,3 3,3 l 38,0 c 1.662,0 3,-1.338 3,-3 l 0,-2 c 0,1.662 -1.338,3 -3,3 l -38,0 c -1.662,0 -3,-1.338 -3,-3 z"/>
 <path style="fill:#e81d62" d="M 54,57 54,7 C 54,5.338 52.662,4 51,4 L 13,4 c -1.662,0 -3,1.338 -3,3 l 0,50 c 0,1.662 1.338,3 3,3 l 38,0 c 1.662,0 3,-1.338 3,-3 z"/>
 <path style="opacity:0.1" d="M 14,9 14,57 50,57 50,25.828 33.172,9 14,9 Z M 38.828,9 50,20.172 50,9 38.828,9 Z"/>
 <path style="fill:#f5f5f5" d="M 14,8 14,56 50,56 50,24.828 33.172,8 14,8 Z M 38.828,8 50,19.1718 50,8 38.828,8 Z"/>
 <path style="opacity:0.1;fill:#ffffff" d="M 13 4 C 11.338 4 10 5.338 10 7 L 10 8 C 10 6.338 11.338 5 13 5 L 51 5 C 52.662 5 54 6.338 54 8 L 54 7 C 54 5.338 52.662 4 51 4 L 13 4 z"/>
 <path style="opacity:0.5" d="M 32.003906 26 L 32 26.003906 C 27.8052 26.003906 24.221128 27.425941 22.736328 29.439453 C 22.611688 29.608495 22.502263 29.780114 22.408203 29.957031 C 22.318803 30.125166 22.241821 30.296321 22.181641 30.470703 A 10 5.498031 0 0 0 22.140625 30.630859 C 22.106345 30.749038 22.069188 30.86771 22.048828 30.988281 A 10 5.498031 0 0 0 22 31.501953 C 22.00055 31.680602 22.018741 31.859965 22.050781 32.037109 A 10 5.498031 0 0 0 22.1875 32.550781 A 10 5.498031 0 0 0 22.417969 33.064453 A 10 5.498031 0 0 0 22.736328 33.564453 A 10 5.498031 0 0 0 32 37 A 10 5.498031 0 0 0 41.263672 33.564453 A 10 5.498031 0 0 0 41.265625 33.558594 A 10 5.498031 0 0 0 41.537109 33.134766 C 41.552909 33.106896 41.572831 33.078761 41.587891 33.050781 A 10 5.498031 0 0 0 41.751953 32.685547 C 41.775273 32.628027 41.804279 32.571566 41.824219 32.513672 A 10 5.498031 0 0 0 41.90625 32.208984 C 41.92545 32.128374 41.946224 32.047885 41.958984 31.966797 A 10 5.498031 0 0 0 42 31.501953 A 10 5.498031 0 0 0 41.947266 30.955078 C 41.855266 30.419027 41.617578 29.911699 41.267578 29.4375 C 39.781578 27.423184 36.197906 26 32.003906 26 z M 22.736328 36 A 10 5.09051 0 0 0 22 37.910156 A 10 5.09051 0 0 0 32 43 A 10 5.09051 0 0 0 42 37.908203 A 10 5.09051 0 0 0 41.263672 36 A 10 5.09051 0 0 1 32 39.181641 A 10 5.09051 0 0 1 22.736328 36 z M 22.736328 42 A 10 5.09051 0 0 0 22 43.908203 A 10 5.09051 0 0 0 32 49 A 10 5.09051 0 0 0 42 43.910156 A 10 5.09051 0 0 0 41.263672 42 A 10 5.09051 0 0 1 32 45.183594 A 10 5.09051 0 0 1 22.736328 42 z"/>
</svg>
